images_sukapura_svg/cmd/sc_sortascending.svg

<svg viewBox="0 0 16 16" xmlns="http://www.w3.org/2000/svg" xmlns:xlink="http://www.w3.org/1999/xlink"><linearGradient id="a" gradientUnits="userSpaceOnUse" x1="-22" x2="-22.008025" y1="16.874857" y2="9.062357"><stop offset="0" stop-color="#0040dd"/><stop offset="1" stop-color="#0a84ff"/></linearGradient><path d="m4.9837797 7.8571172q-.1140779-.2281559-.1853767-.8128053-.9197533.9554027-2.1960002.9554027-1.1407793 0-1.87515599-.6416884-.72724683-.6488182-.72724683-1.6398703 0-1.2049481.91262347-1.8680261.91975335-.6702079 2.58101325-.6702079h1.2833767v-.606039q0-.6915975-.4135325-1.0980001-.4135325-.4135325-1.2192079-.4135325-.7058572 0-1.1835585.3564935-.4777014.3564936-.4777014.8627144h-1.32615596q0-.5775195.40640264-1.1122599.41353251-.54187014 1.11225982-.85558445.7058572-.31371432 1.547182-.31371432 1.3332858 0 2.0890521.67020786.7557664.66307801.7842858 1.83237681v3.5506757q0 1.0623507.2709351 1.6897793v.114078zm-2.1888704-1.0053118q.6202988 0 1.1764287-.3208442.55613-.3208442.8056754-.8341949v-1.5828313h-1.0338312q-2.4241561 0-2.4241561 1.4188443 0 .6202987.4135325.9696624.4135325.3493637 1.0623507.3493637z" fill="url(#a)"/><g fill="#69696e"><path d="m10.5 0c-.277 0-.5.223-.5.5v10.5h-2.5a.50033631.50033631 0 0 0 -.3535156.853516l3.9999996 4a.50033631.50033631 0 0 0 .707032 0l4-4a.50033631.50033631 0 0 0 -.353516-.853516h-2.5v-10.5c0-.277-.223-.5-.5-.5z"/><path d="m1.4639355 15.021884h4.1003152v.978116h-5.56425075v-.880952l3.86712185-5.1367301h-3.80882353v-.9910715h5.31162473v.8485644z"/></g></svg>

<?xml version="1.0" encoding="UTF-8" standalone="no"?>
<svg
   xmlns:dc="http://purl.org/dc/elements/1.1/"
   xmlns:cc="http://creativecommons.org/ns#"
   xmlns:rdf="http://www.w3.org/1999/02/22-rdf-syntax-ns#"
   xmlns:svg="http://www.w3.org/2000/svg"
   xmlns="http://www.w3.org/2000/svg"
   xmlns:xlink="http://www.w3.org/1999/xlink"
   xmlns:sodipodi="http://sodipodi.sourceforge.net/DTD/sodipodi-0.dtd"
   xmlns:inkscape="http://www.inkscape.org/namespaces/inkscape"
   viewBox="0 0 16 16"
   version="1.1"
   id="svg10"
   sodipodi:docname="sc_sortascending.svg"
   inkscape:version="0.92.3 (2405546, 2018-03-11)">
  <metadata
     id="metadata16">
    <rdf:RDF>
      <cc:Work
         rdf:about="">
        <dc:format>image/svg+xml</dc:format>
        <dc:type
           rdf:resource="http://purl.org/dc/dcmitype/StillImage" />
        <dc:title />
      </cc:Work>
    </rdf:RDF>
  </metadata>
  <defs
     id="defs14">
    <linearGradient
       gradientTransform="translate(-25,9)"
       id="a"
       gradientUnits="userSpaceOnUse"
       x1="14"
       x2="13.79661"
       y1="22"
       y2="2.1355929">
      <stop
         offset="0"
         stop-color="#0040dd"
         id="stop2799" />
      <stop
         offset="1"
         stop-color="#0a84ff"
         id="stop2801" />
    </linearGradient>
    <linearGradient
       inkscape:collect="always"
       xlink:href="#a"
       id="linearGradient1563"
       x1="6"
       y1="12"
       x2="6"
       y2="3"
       gradientUnits="userSpaceOnUse"
       gradientTransform="matrix(0.98828473,0,0,0.98828473,0.53905066,0.17203779)" />
    <linearGradient
       inkscape:collect="always"
       xlink:href="#a"
       id="linearGradient1603"
       x1="3"
       y1="7.8748569"
       x2="2.9919748"
       y2="0.062357195"
       gradientUnits="userSpaceOnUse" />
  </defs>
  <sodipodi:namedview
     pagecolor="#ffffff"
     bordercolor="#666666"
     borderopacity="1"
     objecttolerance="10"
     gridtolerance="10"
     guidetolerance="10"
     inkscape:pageopacity="0"
     inkscape:pageshadow="2"
     inkscape:window-width="1366"
     inkscape:window-height="685"
     id="namedview12"
     showgrid="true"
     inkscape:snap-global="false"
     inkscape:zoom="16"
     inkscape:cx="-10.292798"
     inkscape:cy="3.0355413"
     inkscape:window-x="0"
     inkscape:window-y="0"
     inkscape:window-maximized="1"
     inkscape:current-layer="svg10">
    <inkscape:grid
       type="xygrid"
       id="grid823"
       spacingx="0.5"
       spacingy="0.5"
       empspacing="2" />
  </sodipodi:namedview>
  <g
     aria-label="a"
     style="font-style:normal;font-weight:normal;font-size:14.60197544px;line-height:1.25;font-family:sans-serif;letter-spacing:0px;word-spacing:0px;fill:url(#linearGradient1603);fill-opacity:1;stroke:none;stroke-width:0.36504939"
     id="text834">
    <path
       d="M 4.9837797,7.8571172 Q 4.8697018,7.6289613 4.798403,7.0443119 3.8786497,7.9997146 2.6024028,7.9997146 q -1.1407793,0 -1.87515599,-0.6416884 Q -1.6298145e-8,6.709208 -1.6298145e-8,5.7181559 -1.6298145e-8,4.5132078 0.91262345,3.8501298 1.8323768,3.1799219 3.4936367,3.1799219 h 1.2833767 v -0.606039 q 0,-0.6915975 -0.4135325,-1.0980001 Q 3.9499484,1.0623503 3.144273,1.0623503 q -0.7058572,0 -1.1835585,0.3564935 Q 1.4830131,1.7753374 1.4830131,2.2815582 H 0.15685714 q 0,-0.5775195 0.40640264,-1.1122599 Q 0.97679229,0.62742816 1.6755196,0.31371385 2.3813768,-4.6845526e-7 3.2227016,-4.6845526e-7 q 1.3332858,0 2.0890521,0.67020785845526 0.7557664,0.66307801 0.7842858,1.83237681 v 3.5506757 q 0,1.0623507 0.2709351,1.6897793 v 0.114078 z M 2.7949093,6.8518054 q 0.6202988,0 1.1764287,-0.3208442 Q 4.527468,6.210117 4.7770134,5.6967663 V 4.113935 H 3.7431822 q -2.4241561,0 -2.4241561,1.4188443 0,0.6202987 0.4135325,0.9696624 0.4135325,0.3493637 1.0623507,0.3493637 z"
       style="font-style:normal;font-variant:normal;font-weight:normal;font-stretch:normal;font-family:Roboto;-inkscape-font-specification:Roboto;fill:url(#linearGradient1603);fill-opacity:1;stroke-width:0.36504939"
       id="path2234" />
  </g>
  <path
     style="fill:#69696e;fill-opacity:1;stroke:none;stroke-width:0.999439;stroke-linecap:round;stroke-linejoin:round"
     d="M 10.5 0 C 10.223 0 10 0.223 10 0.5 L 10 11 L 7.5 11 A 0.50033631 0.50033631 0 0 0 7.1464844 11.853516 L 11.146484 15.853516 A 0.50033631 0.50033631 0 0 0 11.853516 15.853516 L 15.853516 11.853516 A 0.50033631 0.50033631 0 0 0 15.5 11 L 13 11 L 13 0.5 C 13 0.223 12.777 0 12.5 0 L 10.5 0 z "
     id="path2" />
  <g
     aria-label="z"
     style="font-style:normal;font-weight:normal;font-size:13.26610661px;line-height:1.25;font-family:sans-serif;letter-spacing:0px;word-spacing:0px;fill:#69696e;fill-opacity:1;stroke:none;stroke-width:0.3316527"
     id="text838">
    <path
       d="M 1.4639355,15.021884 H 5.5642507 V 16 H -4.8428774e-8 V 15.119048 L 3.8671218,9.9823179 H 0.05829827 V 8.9912464 H 5.369923 v 0.8485644 z"
       style="font-style:normal;font-variant:normal;font-weight:normal;font-stretch:normal;font-family:Roboto;-inkscape-font-specification:Roboto;fill:#69696e;fill-opacity:1;stroke-width:0.3316527"
       id="path2231" />
  </g>
</svg>
